img/icons/2.svg

<svg width="84" height="85" viewBox="0 0 84 85" fill="none" xmlns="http://www.w3.org/2000/svg">
<path d="M22.0751 44.3004C20.5399 42.7219 19.4828 40.7327 19.1128 38.532C18.0149 38.9789 16.8016 39.2263 15.5259 39.2263C10.894 39.2263 7.08123 35.9542 6.60554 31.7547C3.85711 30.3252 2 27.5912 2 24.4511C2 19.8336 6.01694 16.0905 10.9708 16.0905C11.0934 16.0905 11.2159 16.0929 11.336 16.0977C10.93 15.2761 10.7018 14.3631 10.7018 13.3997C10.7018 9.84168 13.7986 6.95631 17.6185 6.95631C18.529 6.95631 19.3963 7.11967 20.1915 7.41758C22.2144 4.21989 25.9479 2.07448 30.2219 2.07448C32.694 2.07448 34.986 2.79282 36.8695 4.01808C38.114 2.776 39.887 2 41.8547 2C43.9496 2 45.8235 2.87931 47.0752 4.26553C48.4446 3.68173 49.9678 3.355 51.5703 3.355C54.5325 3.355 57.2137 4.46494 59.1669 6.26199C59.8083 6.0794 60.4906 5.9785 61.197 5.9785C64.9064 5.9785 67.9335 8.7005 68.1041 12.1168C68.4741 12.0592 68.8561 12.0279 69.2429 12.0279C73.0099 12.0279 76.0635 14.8725 76.0635 18.3825C76.0635 18.7308 76.0323 19.072 75.9746 19.4035C79.4822 20.5399 82 23.6463 82 27.3029C82 29.0663 81.4138 30.7024 80.412 32.0502C80.8012 33.1169 81.0102 34.258 81.0102 35.4473C81.0102 41.2829 75.9313 46.0157 69.6681 46.0157C69.5239 46.0157 69.3798 46.0133 69.2356 46.0061C69.2645 46.2392 69.2477 46.477 69.2789 46.7149C69.7065 49.9942 67.3041 52.8676 64.5292 52.8676C61.961 52.8676 61.4685 51.2459 59.4792 52.1613C53.3529 54.9746 49.199 53.8622 43.9905 49.4633M80.0155 32.2183C78.711 33.2946 76.9956 33.9505 75.1169 33.9505C71.0375 33.9505 67.7317 30.8705 67.7317 27.0698M68.5582 23.8481C68.5582 27.3077 65.5479 30.1138 61.8336 30.1138C60.4306 30.1138 59.1284 29.7125 58.0521 29.0302M76.2413 44.0049C74.7998 44.9154 73.0075 45.3575 71.1432 45.1316C67.0999 44.6391 64.2481 41.1868 64.7743 37.4173M21.6066 27.7713C22.6493 29.1864 23.161 30.9474 22.9135 32.7829C22.3802 36.7662 18.4834 39.5939 14.207 39.0966M32.4946 21.2919C32.473 22.9159 31.8387 24.5376 30.575 25.835C27.8314 28.6482 23.161 28.8549 20.1435 26.2986M45.8572 14.637C46.9383 15.2376 47.796 16.1938 48.2068 17.3999C49.0981 20.0162 47.5461 22.8078 44.74 23.6391M56.8749 14.4496C55.8491 13.7721 54.5637 13.4262 53.2136 13.5631C50.2849 13.8586 48.1708 16.3115 48.4879 19.0408M43.5652 23.4925C44.4782 24.8259 44.8914 26.4668 44.6055 28.1509C43.9808 31.8099 40.293 34.3037 36.3674 33.7223M63.5009 37.6671C62.2685 39.0269 60.5171 39.9879 58.475 40.2642C55.6641 40.6438 52.9805 39.6276 51.2339 37.7801M68.0681 51.2555C67.0062 52.1324 65.6103 52.6658 64.0799 52.6658C60.7597 52.6658 58.0666 50.1576 58.0666 47.0632M7.30947 33.8905C5.65176 31.6225 6.27881 28.5329 8.71251 26.9857M43.1496 40.3003C41.9411 41.9652 40.1537 43.1616 38.0083 43.5364C33.3571 44.3508 28.79 40.9946 27.8098 36.0407M43.3778 40.5165L32.139 57.1392L43.1952 57.1872L24.0499 81.5051C22.8583 83.0187 19.0936 83.2637 19.9273 81.4234L28.1533 63.2919L19.305 63.4241L29.357 40.5501" stroke="#FFB800" stroke-width="3" stroke-linecap="round" stroke-linejoin="round"/>
</svg>

<svg width="84" height="85" fill="none" xmlns="http://www.w3.org/2000/svg"><path d="M22.075 44.3c-1.535-1.578-2.592-3.567-2.962-5.768a9.501 9.501 0 0 1-3.587.694c-4.632 0-8.445-3.272-8.92-7.471C3.857 30.325 2 27.59 2 24.45c0-4.617 4.017-8.36 8.97-8.36.123 0 .246.002.366.007a6.066 6.066 0 0 1-.634-2.698c0-3.558 3.097-6.444 6.917-6.444.91 0 1.777.164 2.573.462 2.022-3.198 5.756-5.344 10.03-5.344 2.472 0 4.764.719 6.648 1.944C38.114 2.776 39.887 2 41.855 2c2.095 0 3.969.88 5.22 2.266a11.45 11.45 0 0 1 4.495-.911c2.962 0 5.644 1.11 7.597 2.907a7.412 7.412 0 0 1 2.03-.283c3.71 0 6.736 2.721 6.907 6.138.37-.058.752-.09 1.139-.09 3.767 0 6.82 2.846 6.82 6.356 0 .348-.03.689-.088 1.02C79.482 20.54 82 23.647 82 27.303a7.92 7.92 0 0 1-1.588 4.747 9.878 9.878 0 0 1 .598 3.397c0 5.836-5.079 10.569-11.342 10.569-.144 0-.288-.003-.432-.01.028.233.012.471.043.709.428 3.28-1.975 6.153-4.75 6.153-2.568 0-3.06-1.622-5.05-.707-6.126 2.814-10.28 1.701-15.489-2.698m36.026-17.245a7.682 7.682 0 0 1-4.9 1.732c-4.079 0-7.384-3.08-7.384-6.88m.826-3.222c0 3.46-3.01 6.266-6.724 6.266a7.051 7.051 0 0 1-3.782-1.084m18.19 14.975a7.788 7.788 0 0 1-5.099 1.127c-4.043-.493-6.895-3.945-6.369-7.715m-43.167-9.646c1.042 1.415 1.554 3.176 1.306 5.012-.533 3.983-4.43 6.81-8.706 6.314m18.288-17.805c-.022 1.624-.656 3.246-1.92 4.543-2.744 2.813-7.414 3.02-10.431.464m25.713-11.662c1.081.6 1.939 1.557 2.35 2.763.891 2.616-.66 5.408-3.467 6.24m12.135-9.19a5.61 5.61 0 0 0-3.661-.887c-2.93.296-5.043 2.748-4.726 5.478m-4.923 4.451c.913 1.334 1.326 2.975 1.04 4.659-.624 3.659-4.312 6.153-8.238 5.571m27.134 3.945c-1.232 1.36-2.984 2.32-5.026 2.597-2.81.38-5.495-.636-7.241-2.484m16.834 13.475a6.249 6.249 0 0 1-3.988 1.41c-3.32 0-6.013-2.507-6.013-5.602M7.309 33.891c-1.657-2.268-1.03-5.358 1.404-6.905M43.15 40.3c-1.209 1.665-2.996 2.862-5.142 3.236-4.65.815-9.218-2.541-10.198-7.495m15.568 4.476L32.139 57.139l11.056.048L24.05 81.505c-1.192 1.514-4.956 1.759-4.123-.082l8.226-18.131-8.848.132L29.357 40.55" stroke="#FFB800" stroke-width="3" stroke-linecap="round" stroke-linejoin="round"/></svg>
